svgs/solid/person-simple.svg

<svg xmlns="http://www.w3.org/2000/svg" viewBox="0 0 256 512"><!-- Font Awesome Pro 6.0.0-alpha2 by @fontawesome - https://fontawesome.com License - https://fontawesome.com/license (Commercial License) --><path d="M160 160H96C60.654 160 32 188.654 32 224V320C32 337.673 46.327 352 64 352L64 352V480C64 497.673 78.327 512 96 512H160C177.673 512 192 497.673 192 480V352C209.673 352 224 337.673 224 320V224C224 188.654 195.346 160 160 160ZM128 128C163.375 128 192 99.375 192 64S163.375 0 128 0S64 28.625 64 64S92.625 128 128 128Z"/></svg>

<svg xmlns="http://www.w3.org/2000/svg" viewBox="0 0 256 512"><!--! Font Awesome Pro 6.0.0-alpha3 by @fontawesome - https://fontawesome.com License - https://fontawesome.com/license (Commercial License) --><path d="M160 160H96C60.65 160 32 188.7 32 224v96c0 17.67 14.33 32 32 32v128c0 17.67 14.33 32 32 32h64c17.67 0 32-14.33 32-32v-128c17.67 0 32-14.33 32-32V224C224 188.7 195.3 160 160 160zM128 128c35.38 0 64-28.62 64-64s-28.62-64-64-64S64 28.62 64 64S92.63 128 128 128z"/></svg>
